img/icons/communication/box-alt.svg

<svg xmlns="http://www.w3.org/2000/svg" viewBox="0 0 48 40"><g data-name="Layer 2"><path data-name="Box Alt" d="M48 0H0v10h3.06L4.5 31.6a9 9 0 009 8.4h21a9 9 0 009-8.4L44.94 10H48zm-6.5 31.47a7 7 0 01-7 6.53h-21a7 7 0 01-7-6.53L5.07 10H17v6h14v-6h11.93zM19 10h10v4H19zm27-2H2V2h44z" fill="#231f20"/></g></svg>

<svg xmlns="http://www.w3.org/2000/svg" viewBox="0 0 48 40"><defs><style>.cls-1{fill:#231f20;}</style></defs><title>Box Alt</title><g id="Layer_2" data-name="Layer 2"><g id="Icons"><g id="Communication"><path id="Box_Alt" data-name="Box Alt" class="cls-1" d="M48,0H0V10H3.06L4.5,31.6a9,9,0,0,0,9,8.4h21a9,9,0,0,0,9-8.4L44.94,10H48ZM41.5,31.47a7,7,0,0,1-7,6.53h-21a7,7,0,0,1-7-6.53L5.07,10H17v6H31V10H42.93ZM19,10H29v4H19ZM46,8H2V2H46Z"/></g></g></g></svg>
